src/imio/smartweb/core/browser/static/icons/reseausocial-facebook.svg

<svg aria-labelledby="title" viewBox="0 0 2048 2048" xmlns="http://www.w3.org/2000/svg"><g><path d="M1184,2035.56v-715.56h238.6l45.4-296h-284v-192.09c0-80.98,39.67-159.91,166.87-159.91h129.13v-252c-78.12-13.33-154.53-20-229.22-20-233.9,0-386.78,141.76-386.78,398.4v225.6h-260v296h260v715.56C374.46,1958.74,0,1535.11,0,1024,0,458.46,458.46,0,1024,0s1024,458.46,1024,1024c0,511.11-374.46,934.74-864,1011.56Z"></path><path d="M1184,1320v715.56c-52.13,8.18-105.57,12.44-160,12.44s-107.87-4.26-160-12.44v-715.56h-260v-296h260v-225.6c0-256.64,152.88-398.4,386.78-398.4,74.69,0,151.1,6.67,229.22,20v252h-129.13c-127.2,0-166.87,78.93-166.87,159.91v192.09h284l-45.4,296h-238.6Z" style="fill:#fff;"></path></g><title></title></svg>

<svg version="1.2" baseProfile="tiny-ps" xmlns="http://www.w3.org/2000/svg" viewBox="0 0 2048 2048" width="2048" height="2048">
	<title>f_logo_RGB-Black_1024-ai</title>
	<style>
		tspan { white-space:pre }
		.shp0 { fill: #000000 } 
		.shp1 { fill: #ffffff } 
	</style>
	<g id="Ebene 1">
		<g id="&lt;Group&gt;">
			<path id="&lt;Path&gt;" class="shp0" d="M1184 2035.56L1184 1320L1422.6 1320L1468 1024L1184 1024L1184 831.91C1184 750.93 1223.67 672 1350.87 672L1480 672L1480 420C1401.88 406.67 1325.47 400 1250.78 400C1016.88 400 864 541.76 864 798.4L864 1024L604 1024L604 1320L864 1320L864 2035.56C374.46 1958.74 0 1535.11 0 1024C0 458.46 458.46 0 1024 0C1589.54 0 2048 458.46 2048 1024C2048 1535.11 1673.54 1958.74 1184 2035.56Z" />
			<path id="&lt;Path&gt;" class="shp1" d="M1184 1320L1184 2035.56C1131.87 2043.74 1078.43 2048 1024 2048C969.57 2048 916.13 2043.74 864 2035.56L864 1320L604 1320L604 1024L864 1024L864 798.4C864 541.76 1016.88 400 1250.78 400C1325.47 400 1401.88 406.67 1480 420L1480 672L1350.87 672C1223.67 672 1184 750.93 1184 831.91L1184 1024L1468 1024L1422.6 1320L1184 1320Z" />
		</g>
	</g>
</svg>
